X:1
T:Buckley's Favorite -- Reel
R:reel
B:Ryan's Mammoth Collection
Z:Contributed by Ray Davies,  ray:davies99.freeserve.co.uk
M:2/4
L:1/16
K:G
uD2|G2BG dGBG|ABcd egdB|G2BG dGBG|AdFd (Ad)(Fd)|
G2BG dGBG|ABcd .e2.d2|(ba)(ag) .e2(dB)|GAFA G2::
u(ef)|gfga gede|gabg ageg|{b}agab agef|gabg e2df|
gfga gede|eabg agef|{a}gfga gedB|GAFA G2:|
